X:1
T:Howitt, HM (repeat)
T:Howitt, HM (repeat)
T:John Zundel, 1857
T:Public Domain Courtesy of the Cyber Hymnal™
C:John Zundel, 1857
Z:Public Domain
Z:Courtesy of the Cyber Hymnal™
%%score ( 1 2 ) ( 3 4 )
L:1/8
Q:1/4=110
M:4/4
K:G
V:1 treble 
V:2 treble 
V:3 bass 
V:4 bass 
V:1
 D2 | B3 A G2 E2 | D6 D2 | G3 [FA] [GB]2 [G^c]2 | [Fd]6 [EA]2 | [^DB]3 [DA] [EG]2 [DF]2 | %6
 ([EG]3 [FA] [GB]2) [Ge]2 | [Fd]2 (FG) [^CA]2 (EF) | D6 D2 | [DF]3 G [FA]2 [Gc]2 | %10
 [GB]3 [FA] G2 [GB]2 | [FA]3 [GB] [Ac]2 [Ae]2 | [Bd]3 [Ac] [GB]2 D2 | B3 A (G2 E2) | D4 [Gd]4 | %15
 [Ac]4 [FA]4 | G6 |] %17
V:2
 D2 | B3 A G2 E2 | D6 D2 | G3 x5 | x8 | x8 | x8 | x2 D2 x ^C2 x | D6 D2 | x3 G x4 | x4 G2 x2 | x8 | %12
 x6 D2 | (B3 A) G2 E2 | D4 x4 | x8 | G6 |] %17
V:3
 D,2 | B,3 A, G,2 E,2 | D,6 D,2 | [B,D]3 [A,D] [G,D]2 [E,A,]2 | [D,A,]6 [C,E,]2 | %5
 [B,,F,]3 [B,,B,] [B,,B,]2 [B,,B,]2 | [E,B,]6 [G,B,]2 | [A,D]2 [A,,A,]2 [A,,A,]2 [A,,G,]2 | %8
 [D,F,]6 D,2 | [D,A,]3 [D,B,] [D,C]2 [D,E]2 | [G,,D]3 [G,,C] [G,,B,]2 [G,D]2 | %11
 [D,D]3 [D,D] [D,D]2 [F,C]2 | [G,B,]3 [A,C] [B,D]2 D,2 | B,3 A, G,2 E,2 | D,4 [B,,D]4 | %15
 [C,E]4 [D,C]4 | [G,B,]6 |] %17
V:4
 D,2 | B,3 A, G,2 E,2 | D,6 D,2 | x8 | x8 | x8 | x8 | x8 | x6 D,2 | x8 | x8 | x8 | x6 D,2 | %13
 (B,3 A,) (G,2 E,2) | D,4 x4 | x8 | x6 |] %17

